assets/images/ico_question.svg

<svg width="36" height="33" viewBox="0 0 36 33" fill="none" xmlns="http://www.w3.org/2000/svg">
<path d="M18 32.625C17.7008 32.5778 17.4105 32.5046 17.199 32.2886L11.9902 27H2.81138C1.26113 27 0 25.7389 0 24.1898V2.81138C0 1.26113 1.26113 0 2.81138 0H33.1898C34.7389 0 36 1.26113 36 2.81138V24.1898C36 25.7389 34.7389 27 33.1898 27H24.0907L18.7954 32.2954C18.585 32.5069 18.2981 32.625 18 32.625Z" fill="#D3C9BE"/>
<path d="M17.9297 20.25C18.551 20.25 19.0547 19.7463 19.0547 19.125C19.0547 18.5037 18.551 18 17.9297 18C17.3084 18 16.8047 18.5037 16.8047 19.125C16.8047 19.7463 17.3084 20.25 17.9297 20.25Z" fill="white"/>
<path d="M17.9306 16.875C17.3096 16.875 16.8056 16.371 16.8056 15.75C16.8056 14.2526 18.1297 13.113 19.4246 12.195C19.8273 11.9092 20.2717 10.9631 20.0231 10.1869C19.7767 9.42074 18.8024 8.96399 18.0026 8.96399C18.0026 8.96399 18.0026 8.96399 18.0014 8.96399C17.1239 8.96399 16.0349 9.37237 15.6108 10.5154C15.3937 11.0981 14.7446 11.3929 14.1641 11.178C13.5802 10.9631 13.2843 10.3151 13.5003 9.73349C14.1809 7.90087 15.9472 6.71512 18.0003 6.71512C18.0003 6.71512 18.0014 6.71512 18.0026 6.71512C19.6271 6.71512 21.5789 7.67137 22.1662 9.50062C22.7332 11.268 21.8602 13.2289 20.7262 14.0321C19.2187 15.0997 19.0567 15.5902 19.0567 15.7511C19.0556 16.371 18.5516 16.875 17.9306 16.875Z" fill="white"/>
</svg>

<svg width="36" height="33" fill="none" xmlns="http://www.w3.org/2000/svg"><path d="M18 32.625c-.3-.047-.59-.12-.801-.336L11.99 27H2.811A2.814 2.814 0 010 24.19V2.81A2.815 2.815 0 012.811 0H33.19A2.814 2.814 0 0136 2.811V24.19A2.814 2.814 0 0133.19 27h-9.1l-5.295 5.295c-.21.212-.497.33-.795.33z" fill="#D3C9BE"/><path d="M17.93 20.25a1.125 1.125 0 100-2.25 1.125 1.125 0 000 2.25zm0-3.375a1.125 1.125 0 01-1.124-1.125c0-1.497 1.324-2.637 2.619-3.555.402-.286.847-1.232.598-2.008-.246-.766-1.22-1.223-2.02-1.223H18c-.877 0-1.966.408-2.39 1.551a1.127 1.127 0 01-1.447.663 1.122 1.122 0 01-.664-1.445c.68-1.832 2.447-3.018 4.5-3.018h.003c1.624 0 3.576.956 4.163 2.786.567 1.767-.306 3.728-1.44 4.531-1.507 1.068-1.67 1.558-1.67 1.72a1.127 1.127 0 01-1.125 1.123z" fill="#fff"/></svg>
